images/VV-logo.svg

<svg width="400" height="387" viewBox="0 0 400 387" fill="none" xmlns="http://www.w3.org/2000/svg">
<path d="M297.402 18.4717L302.598 21.4717L274.238 70.5929L341.712 52.5133L343.265 58.3089L269.995 77.9414L205.196 190.177H334.931L388.431 136.677L392.674 140.919L343.417 190.177H400V196.177L343.28 196.177L392.674 245.571L388.431 249.814L334.794 196.177L205.196 196.177L270.064 308.531L343.146 328.113L341.593 333.909L274.306 315.879L302.598 364.882L297.402 367.882L269.042 318.76L250.962 386.235L245.167 384.682L264.799 311.412L200 199.177L135.064 311.65L154.646 384.732L148.851 386.285L130.821 318.998L102.598 367.882L97.402 364.882L125.694 315.879L58.2195 333.959L56.6666 328.163L129.936 308.531L194.804 196.177L64.9315 196.177L11.4315 249.677L7.18882 245.434L56.4462 196.177H7.92742e-06L0 190.177H56.5833L7.18881 140.782L11.4315 136.54L65.0685 190.177H194.804L129.868 77.7039L56.7852 58.1215L58.3382 52.326L125.625 70.3554L97.4019 21.4716L102.598 18.4716L130.89 67.4742L148.969 3.05176e-05L154.765 1.55295L135.132 74.8226L200 187.177L264.868 74.8227L245.285 1.74032L251.081 0.187411L269.11 67.4742L297.402 18.4717Z" fill="black"/>
<path fill-rule="evenodd" clip-rule="evenodd" d="M282.24 159.86L296.279 76.147L247.184 133.672L200.144 98.5323L152.564 134.076L103.126 76.1504L117.264 160.447L88.2019 182.157L102.027 206.376L99.9988 203.592L72.8313 240.002L133.506 261.525L190.717 361.751H209.572L266.845 261.415L327.21 240.002L300.042 203.592L299.159 204.805L312.087 182.157L282.24 159.86ZM126.804 219.187L174.486 236.074L139.463 199.576L126.804 219.187ZM226.004 236.074L273.686 219.187L261.027 199.576L226.004 236.074Z" fill="black"/>
</svg>

<svg xmlns="http://www.w3.org/2000/svg" width="400" height="387" fill="none"><path fill="#000" d="m297.402 18.472 5.196 3-28.36 49.12 67.474-18.079 1.553 5.796-73.27 19.632-64.799 112.236h129.735l53.5-53.5 4.243 4.242-49.257 49.258H400v6h-56.72l49.394 49.394-4.243 4.243-53.637-53.637H205.196l64.868 112.354 73.082 19.582-1.553 5.796-67.287-18.03 28.292 49.003-5.196 3-28.36-49.122-18.08 67.475-5.795-1.553 19.632-73.27L200 199.177 135.064 311.65l19.582 73.082-5.795 1.553-18.03-67.287-28.223 48.884-5.196-3 28.292-49.003-67.475 18.08-1.552-5.796 73.269-19.632 64.868-112.354H64.931l-53.5 53.5-4.242-4.243 49.257-49.257H0v-6h56.583L7.19 140.782l4.242-4.242 53.638 53.637h129.735L129.868 77.704 56.785 58.122l1.553-5.796 67.287 18.03-28.223-48.884 5.196-3 28.292 49.002L148.969 0l5.796 1.553-19.633 73.27L200 187.177l64.868-112.354L245.285 1.74l5.796-1.553 18.029 67.287 28.292-49.002Z"/><path fill="#000" fill-rule="evenodd" d="m282.24 159.86 14.039-83.713-49.095 57.525-47.04-35.14-47.58 35.544-49.438-57.926 14.138 84.297-29.062 21.71 13.825 24.219-2.028-2.784-27.168 36.41 60.675 21.523 57.211 100.226h18.855l57.273-100.336 60.365-21.413-27.168-36.41-.883 1.213 12.928-22.648-29.847-22.297Zm-155.436 59.327 47.682 16.887-35.023-36.498-12.659 19.611Zm99.2 16.887 47.682-16.887-12.659-19.611-35.023 36.498Z" clip-rule="evenodd"/></svg>
